src/assets/icons/car.svg

<svg width="14" height="14" viewBox="0 0 14 14" fill="none" xmlns="http://www.w3.org/2000/svg">
<g id="car">
<g clip-path="url(#clip0_156_4540)">
<g id="Vector">
<path d="M3.79988 9.49918C4.46262 9.49918 4.99988 8.96192 4.99988 8.29918C4.99988 7.63644 4.46262 7.09918 3.79988 7.09918C3.13714 7.09918 2.59988 7.63644 2.59988 8.29918C2.59988 8.96192 3.13714 9.49918 3.79988 9.49918Z" fill="black"/>
<path d="M11.3999 8.29918C11.3999 8.96192 10.8626 9.49918 10.1999 9.49918C9.53714 9.49918 8.99988 8.96192 8.99988 8.29918C8.99988 7.63644 9.53714 7.09918 10.1999 7.09918C10.8626 7.09918 11.3999 7.63644 11.3999 8.29918Z" fill="black"/>
<path fill-rule="evenodd" clip-rule="evenodd" d="M13.2207 5.25118L11.7559 1.22159C11.5559 0.670394 11.0271 0.299988 10.4399 0.299988H3.55988C2.97348 0.299988 2.44388 0.670394 2.24388 1.22159L0.779077 5.25118C0.319077 5.48078 -0.00012207 5.95199 -0.00012207 6.49999V10.1C-0.00012207 10.5784 0.241473 11.0008 0.609473 11.2536C0.609095 11.2611 0.606939 11.2681 0.604766 11.2752C0.602332 11.2831 0.599878 11.2911 0.599878 11.3V12.9C0.599878 13.3416 0.958278 13.7 1.39988 13.7H2.19988C2.64148 13.7 2.99988 13.3416 2.99988 12.9V11.5H10.9999V12.9C10.9999 13.3416 11.3583 13.7 11.7999 13.7H12.5999C13.0415 13.7 13.3999 13.3416 13.3999 12.9V11.3C13.3999 11.2906 13.3974 11.2823 13.3949 11.2739C13.393 11.2673 13.391 11.2607 13.3903 11.2536C13.7575 11.0008 13.9999 10.5784 13.9999 10.1V6.49999C13.9999 5.95119 13.6807 5.48078 13.2207 5.25118ZM12.7999 10.0992C12.7999 10.208 12.7087 10.2992 12.5999 10.2992H1.39988C1.29108 10.2992 1.19988 10.208 1.19988 10.0992V6.49918C1.19988 6.39038 1.29108 6.29918 1.39988 6.29918H12.5999C12.7087 6.29918 12.7999 6.39038 12.7999 6.49918V10.0992ZM3.37268 1.63038C3.40068 1.55198 3.47668 1.49918 3.55988 1.49918H10.4399C10.5231 1.49918 10.5991 1.55198 10.6271 1.63038L11.7439 4.69918H2.25668L3.37268 1.63038Z" fill="black"/>
</g>
</g>
</g>
<defs>
<clipPath id="clip0_156_4540">
<rect width="14" height="14" fill="white"/>
</clipPath>
</defs>
</svg>

<svg xmlns="http://www.w3.org/2000/svg" fill="none" viewBox="0 0 14 14"><g fill="#000" clip-path="url(#a)"><path d="M3.8 9.5a1.2 1.2 0 1 0 0-2.4 1.2 1.2 0 0 0 0 2.4M11.4 8.3a1.2 1.2 0 1 1-2.4 0 1.2 1.2 0 0 1 2.4 0"/><path fill-rule="evenodd" d="m13.22 5.251-1.464-4.03A1.4 1.4 0 0 0 10.44.3H3.56c-.587 0-1.116.37-1.316.922L.779 5.252C.32 5.48 0 5.951 0 6.5v3.6c0 .478.242.9.61 1.154q0 .01-.004.021L.6 11.3v1.6a.8.8 0 0 0 .8.8h.8a.8.8 0 0 0 .8-.8v-1.4h8v1.4a.8.8 0 0 0 .8.8h.8a.8.8 0 0 0 .8-.8v-1.6q-.001-.014-.005-.026l-.005-.02A1.4 1.4 0 0 0 14 10.1V6.5c0-.549-.32-1.02-.78-1.249M12.8 10.1c0 .109-.091.2-.2.2H1.4a.2.2 0 0 1-.2-.2V6.5c0-.109.091-.2.2-.2h11.2c.109 0 .2.091.2.2zM3.373 1.63a.2.2 0 0 1 .187-.13h6.88a.2.2 0 0 1 .187.13l1.117 3.07H2.257z" clip-rule="evenodd"/></g><defs><clipPath id="a"><path fill="#fff" d="M0 0h14v14H0z"/></clipPath></defs></svg>
